X:451
T: MEIN HERZ HAT SICH GESELLET
N: E0388
O: Europa, Mitteleuropa, Deutschland
R: Liebes - Lied, Jahreszeiten, Fruehling
M: 6/4
L: 1/4
K: A
A | A2AA2F | E3B2
c | B2AG2F | E3-E2
A | A2AA2F | E3B2
c | B2AG2F | E3-E2
E | A2AG2E | A3B2
B | B2Bc2c | B2AB2
c | e2dc2B | A3d2
B | c2BA2G | A3-A2

